X: 41
T: Shandan hong hua kai
%%abc-version 2.0
%%abcx-abcm2ps-target-version 5.9.1 (29 Sep 2008)
%%abc-creator hum2abc beta
%%abcx-conversion-date 2013/10/02 07:44:27
%%abc-edited-by Helmut Schaffrath
%%humdrum-veritas 3464270962
%%humdrum-veritas-data 675533645
%%continueall 1
%%barnumbers 0
L: 1/16
M: 2/4
K: A
B2 e2 B c B A [I:setbarnb 1]| 
B A F2E4 | 
e2> f2 e d B d | 
e8 | 
e2> f2 e d B d | 
e8 | 
B2 e2 B c B A | 
B A F2E4 | 
B4A2 F2 | 
B2 B A F2 E2 | 
F2 F2 A B A F | 
E8 |]  



